svgs/solid/send-backward.svg

<svg xmlns="http://www.w3.org/2000/svg" viewBox="0 0 514 512"><path d="M464 160H208a48 48 0 0 0-48 48v256a48 48 0 0 0 48 48h256a48 48 0 0 0 48-48V208a48 48 0 0 0-48-48zm-16 288H224V224h224zm-96-320V48a48 48 0 0 0-48-48H48A48 48 0 0 0 0 48v256a48 48 0 0 0 48 48h80V208a80.09 80.09 0 0 1 80-80z"/></svg>

<svg xmlns="http://www.w3.org/2000/svg" viewBox="0 0 512 512"><path d="M464,160H208a48,48,0,0,0-48,48V464a48,48,0,0,0,48,48H464a48,48,0,0,0,48-48h0V208A48,48,0,0,0,464,160ZM448,448H224V224H448ZM352,128V48A48,48,0,0,0,304,0H48A48,48,0,0,0,0,48V304a48,48,0,0,0,48,48h80V208a80.09,80.09,0,0,1,80-80Z"/></svg>
